X: 11762
T: Eliana Grace
R: reel
M: 4/4
K: Emajor
BABg fgeB|ceAg effe|=c2A=G AB(A2|A)BB=G Bdea|
g3f/e/ fgB2|ceAg effg|f3a g3f|1 g2fe fgA2:|2 g2fe fgBe||
deed eede|=d6 Bd|=d2=cB A2=GB-|B6 eB|
deed e2de-|ec2B- B2 GB|B2 cG F3E|E4- EB G/F/E|
DEED EEDE|=D6 B=d|=d2=cB A2=GB-|B3g- gf fe|
g2fe fgBf-|ffed- deeB|c2 eG F3 E|E8:|

